X:1
T:Sutherland, HM
T:Sutherland, HM
T:William Batchelder Bradbury (1816-1868)
T:Public Domain Courtesy of the Cyber Hymnal™
C:William Batchelder Bradbury (1816-1868)
Z:Public Domain
Z:Courtesy of the Cyber Hymnal™
%%score ( 1 2 ) ( 3 4 )
L:1/8
Q:1/4=112
M:4/4
K:D
V:1 treble 
V:2 treble 
V:3 bass 
V:4 bass 
V:1
|: [FA]2 | [Fd]2 [Gc]2 [Ad]2 [FA]2 | ([GB]4 [GB][Bd]) ([Ac][GB]) | [FA]2 [EG]2 [DF]2 [CE]2 | %4
 D4 z2 :| d2 | (e2 c2 A2) [Ac]2 x | d6 [Fd]2 | (e2 c2 A2) [Fc]2 | d6 [FA]2 | %10
 ([GB]2 [Bd]2 [Ac]2) [GB]2 | A6 [EG]2 | [DF]4 [CE]4 | D6 |] %14
V:2
|: x2 | x8 | x8 | x8 | D4 x2 :| x2 | x9 | (A2 G2 A2) x2 | G6 x2 | (A2 G2 A2) x2 | x8 | %11
 (F2 E2 D2) x2 | x8 | D6 |] %14
V:3
|: [D,D]2 | [D,A,]2 [E,A,]2 [F,A,]2 [D,D]2 | [G,D]6 [G,D]2 | [A,D]2 A,2 [A,,A,]2 [A,,G,]2 | %4
 [D,F,]4 z2 :| z2 | z6 E3 | D4 [F,A,]2 [D,D]2 | C2 E4 E2 | ([F,D]2 [E,D]2 [F,D]2) [F,D]2 | %10
 [G,D]6 [G,D]2 | ([D,D]2 [E,C]2 [F,D]2) [G,B,]2 | A,4 (A,2 G,2) | [D,F,]6 |] %14
V:4
|: x2 | x8 | x8 | x2 A,2 x4 | x6 :| x2 | x6 (A,G,) x | F,2 E,2 x4 | A,,6 (A,G,) | x8 | x8 | x8 | %12
 A,4 A,,4 | x6 |] %14

